tools/download-figma-icons/icons/outlined-medium/connector-type2.svg

<svg width="24" height="24" viewBox="0 0 24 24" fill="none" xmlns="http://www.w3.org/2000/svg">
<path fill-rule="evenodd" clip-rule="evenodd" d="M11.9994 20.9997C15.9361 20.9997 19.5098 18.7857 21.3278 15.2218C22.1055 13.6955 22.4993 12.0441 22.4993 10.3123C22.4993 9.18061 22.3253 8.06313 21.9825 6.98914C21.6765 6.03666 21.2363 5.12992 20.6746 4.29443C20.2418 3.65019 19.5241 2.99995 18.8986 2.99995H5.10479C4.41705 2.99995 3.67831 3.75444 3.25532 4.40018C2.72732 5.20492 2.31108 6.07566 2.01709 6.98989C1.67434 8.06313 1.50034 9.18061 1.50034 10.3123C1.50034 12.0441 1.89409 13.6955 2.67183 15.2218C4.4898 18.7857 8.06349 20.9997 11.9994 20.9997ZM21.9195 3.45745C22.56 4.40993 23.0618 5.44417 23.4105 6.53165C23.802 7.75413 24 9.02536 24 10.3123C24 12.2548 23.5373 14.1883 22.6635 15.9028C20.5891 19.9722 16.5024 22.4997 11.9994 22.4997C7.49725 22.4997 3.41056 19.9722 1.3361 15.9028C0.462359 14.1883 0.000366205 12.2548 0.000366205 10.3123C0.000366205 9.02536 0.197613 7.75413 0.589107 6.5324C0.924352 5.48767 1.39984 4.49393 2.00059 3.5782C2.32008 3.0907 3.48781 1.49998 5.10479 1.49998H18.8986C20.4803 1.49998 21.6105 2.99845 21.9195 3.45745ZM10.4998 6.00001C10.4998 6.828 9.82785 7.49999 8.99986 7.49999C8.17187 7.49999 7.49988 6.828 7.49988 6.00001C7.49988 5.17202 8.17187 4.50003 8.99986 4.50003C9.82785 4.50003 10.4998 5.17202 10.4998 6.00001ZM8.24987 11.2499C8.24987 10.0072 7.24264 8.99996 5.99991 8.99996C4.75717 8.99996 3.74994 10.0072 3.74994 11.2499C3.74994 12.4927 4.75717 13.4999 5.99991 13.4999C7.24264 13.4999 8.24987 12.4927 8.24987 11.2499ZM11.9998 8.99996C13.2425 8.99996 14.2498 10.0072 14.2498 11.2499C14.2498 12.4927 13.2425 13.4999 11.9998 13.4999C10.7571 13.4999 9.74985 12.4927 9.74985 11.2499C9.74985 10.0072 10.7571 8.99996 11.9998 8.99996ZM15.7498 11.2499C15.7498 10.0072 16.757 8.99996 17.9997 8.99996C19.2425 8.99996 20.2497 10.0072 20.2497 11.2499C20.2497 12.4927 19.2425 13.4999 17.9997 13.4999C16.757 13.4999 15.7498 12.4927 15.7498 11.2499ZM12.7498 16.4998C12.7498 15.2571 13.757 14.2499 14.9998 14.2499C16.2425 14.2499 17.2497 15.2571 17.2497 16.4998C17.2497 17.7426 16.2425 18.7498 14.9998 18.7498C13.757 18.7498 12.7498 17.7426 12.7498 16.4998ZM8.99986 14.2499C7.75713 14.2499 6.74989 15.2571 6.74989 16.4998C6.74989 17.7426 7.75713 18.7498 8.99986 18.7498C10.2426 18.7498 11.2498 17.7426 11.2498 16.4998C11.2498 15.2571 10.2426 14.2499 8.99986 14.2499ZM14.9998 7.49999C15.8278 7.49999 16.4997 6.828 16.4997 6.00001C16.4997 5.17202 15.8278 4.50003 14.9998 4.50003C14.1718 4.50003 13.4998 5.17202 13.4998 6.00001C13.4998 6.828 14.1718 7.49999 14.9998 7.49999Z" fill="black"/>
</svg>

<svg xmlns="http://www.w3.org/2000/svg" width="24" height="24" fill="none" viewBox="0 0 24 24"><path fill="currentColor" fill-rule="evenodd" d="M12 21c3.936 0 7.51-2.214 9.328-5.778a10.7 10.7 0 0 0 1.171-4.91 10.7 10.7 0 0 0-1.825-6.018C20.243 3.65 19.525 3 18.9 3H5.105c-.688 0-1.427.754-1.85 1.4a10.7 10.7 0 0 0-1.238 2.59 10.9 10.9 0 0 0-.517 3.322c0 1.732.394 3.383 1.172 4.91C4.49 18.786 8.063 21 11.999 21m9.92-17.543a12.2 12.2 0 0 1 1.49 3.075 12.38 12.38 0 0 1-.747 9.37C20.59 19.973 16.504 22.5 12 22.5c-4.502 0-8.588-2.528-10.663-6.597A12.4 12.4 0 0 1 0 10.313c0-1.288.198-2.559.59-3.78A12.2 12.2 0 0 1 2 3.577C2.32 3.091 3.489 1.5 5.106 1.5H18.9c1.581 0 2.711 1.498 3.02 1.957M10.5 6a1.5 1.5 0 1 1-3.001-.001 1.5 1.5 0 0 1 3 .001m-2.25 5.25a2.25 2.25 0 1 0-4.5 0 2.25 2.25 0 0 0 4.5 0M12 9a2.25 2.25 0 1 1 0 4.5A2.25 2.25 0 0 1 12 9m3.75 2.25a2.25 2.25 0 1 1 4.5 0 2.25 2.25 0 0 1-4.5 0m-3 5.25a2.25 2.25 0 1 1 4.5 0 2.25 2.25 0 0 1-4.5 0M9 14.25a2.25 2.25 0 1 0 0 4.5 2.25 2.25 0 0 0 0-4.5m6-6.75a1.5 1.5 0 1 0-.001-3 1.5 1.5 0 0 0 0 3" clip-rule="evenodd"/></svg>
